images/3247351.svg

<?xml version="1.0" encoding="UTF-8"?>
<svg xmlns="http://www.w3.org/2000/svg" xmlns:xlink="http://www.w3.org/1999/xlink" width="300pt" height="300pt" viewBox="0 0 300 300" version="1.1">
<defs>
<g>
<symbol overflow="visible" id="glyph0-0">
<path style="stroke:none;" d="M 0.453125 1.59375 L 0.453125 -6.34375 L 4.953125 -6.34375 L 4.953125 1.59375 Z M 0.953125 1.09375 L 4.453125 1.09375 L 4.453125 -5.84375 L 0.953125 -5.84375 Z M 0.953125 1.09375 "/>
</symbol>
<symbol overflow="visible" id="glyph0-1">
<path style="stroke:none;" d="M 0.890625 -6.5625 L 2.078125 -6.5625 L 4.984375 -1.078125 L 4.984375 -6.5625 L 5.84375 -6.5625 L 5.84375 0 L 4.65625 0 L 1.75 -5.484375 L 1.75 0 L 0.890625 0 Z M 0.890625 -6.5625 "/>
</symbol>
<symbol overflow="visible" id="glyph0-2">
<path style="stroke:none;" d="M 3.546875 -5.953125 C 2.898438 -5.953125 2.382812 -5.710938 2 -5.234375 C 1.625 -4.753906 1.4375 -4.101562 1.4375 -3.28125 C 1.4375 -2.445312 1.625 -1.789062 2 -1.3125 C 2.382812 -0.832031 2.898438 -0.59375 3.546875 -0.59375 C 4.191406 -0.59375 4.703125 -0.832031 5.078125 -1.3125 C 5.453125 -1.789062 5.640625 -2.445312 5.640625 -3.28125 C 5.640625 -4.101562 5.453125 -4.753906 5.078125 -5.234375 C 4.703125 -5.710938 4.191406 -5.953125 3.546875 -5.953125 Z M 3.546875 -6.6875 C 4.460938 -6.6875 5.195312 -6.375 5.75 -5.75 C 6.300781 -5.132812 6.578125 -4.3125 6.578125 -3.28125 C 6.578125 -2.238281 6.300781 -1.410156 5.75 -0.796875 C 5.195312 -0.179688 4.460938 0.125 3.546875 0.125 C 2.617188 0.125 1.878906 -0.179688 1.328125 -0.796875 C 0.773438 -1.410156 0.5 -2.238281 0.5 -3.28125 C 0.5 -4.3125 0.773438 -5.132812 1.328125 -5.75 C 1.878906 -6.375 2.617188 -6.6875 3.546875 -6.6875 Z M 3.546875 -6.6875 "/>
</symbol>
<symbol overflow="visible" id="glyph0-3">
<path style="stroke:none;" d="M 0.890625 -6.5625 L 1.765625 -6.5625 L 1.765625 -3.875 L 5 -3.875 L 5 -6.5625 L 5.890625 -6.5625 L 5.890625 0 L 5 0 L 5 -3.125 L 1.765625 -3.125 L 1.765625 0 L 0.890625 0 Z M 0.890625 -6.5625 "/>
</symbol>
</g>
</defs>
<g id="surface47845">
<rect x="0" y="0" width="300" height="300" style="fill:rgb(100%,100%,100%);fill-opacity:1;stroke:none;"/>
<path style="fill:none;stroke-width:1.2;stroke-linecap:butt;stroke-linejoin:miter;stroke:rgb(0%,0%,0%);stroke-opacity:1;stroke-miterlimit:10;" d="M 140.578125 243.707031 L 121.867188 228.683594 "/>
<path style="fill:none;stroke-width:1.2;stroke-linecap:butt;stroke-linejoin:miter;stroke:rgb(0%,0%,0%);stroke-opacity:1;stroke-miterlimit:10;" d="M 121.867188 228.683594 L 123.023438 204.714844 "/>
<path style="fill:none;stroke-width:1.2;stroke-linecap:butt;stroke-linejoin:miter;stroke:rgb(0%,0%,0%);stroke-opacity:1;stroke-miterlimit:10;" d="M 116.34375 226.015625 L 117.265625 206.839844 "/>
<path style="fill:none;stroke-width:1.2;stroke-linecap:butt;stroke-linejoin:miter;stroke:rgb(100%,0%,0%);stroke-opacity:1;stroke-miterlimit:10;" d="M 98.710938 234.992188 L 110.289062 231.839844 "/>
<path style="fill:none;stroke-width:1.2;stroke-linecap:butt;stroke-linejoin:miter;stroke:rgb(0%,0%,0%);stroke-opacity:1;stroke-miterlimit:10;" d="M 110.289062 231.839844 L 121.867188 228.683594 "/>
<path style="fill:none;stroke-width:1.2;stroke-linecap:butt;stroke-linejoin:miter;stroke:rgb(0%,0%,0%);stroke-opacity:1;stroke-miterlimit:10;" d="M 123.023438 204.714844 L 100.582031 196.210938 "/>
<path style="fill:none;stroke-width:1.2;stroke-linecap:butt;stroke-linejoin:miter;stroke:rgb(0%,0%,0%);stroke-opacity:1;stroke-miterlimit:10;" d="M 100.582031 196.210938 L 93.070312 205.566406 "/>
<path style="fill:none;stroke-width:1.2;stroke-linecap:butt;stroke-linejoin:miter;stroke:rgb(0%,0%,100%);stroke-opacity:1;stroke-miterlimit:10;" d="M 93.070312 205.566406 L 85.558594 214.921875 "/>
<path style="fill:none;stroke-width:1.2;stroke-linecap:butt;stroke-linejoin:miter;stroke:rgb(0%,0%,0%);stroke-opacity:1;stroke-miterlimit:10;" d="M 103.484375 201.617188 L 97.472656 209.101562 "/>
<path style="fill:none;stroke-width:1.2;stroke-linecap:butt;stroke-linejoin:miter;stroke:rgb(0%,0%,100%);stroke-opacity:1;stroke-miterlimit:10;" d="M 97.472656 209.101562 L 91.464844 216.585938 "/>
<path style="fill:none;stroke-width:1.2;stroke-linecap:butt;stroke-linejoin:miter;stroke:rgb(0%,0%,0%);stroke-opacity:1;stroke-miterlimit:10;" d="M 100.582031 196.210938 L 94.277344 173.054688 "/>
<path style="fill:none;stroke-width:1.2;stroke-linecap:butt;stroke-linejoin:miter;stroke:rgb(0%,0%,100%);stroke-opacity:1;stroke-miterlimit:10;" d="M 85.558594 214.921875 L 92.136719 224.957031 "/>
<path style="fill:none;stroke-width:1.2;stroke-linecap:butt;stroke-linejoin:miter;stroke:rgb(100%,0%,0%);stroke-opacity:1;stroke-miterlimit:10;" d="M 92.136719 224.957031 L 98.710938 234.992188 "/>
<path style=" stroke:none;fill-rule:nonzero;fill:rgb(100%,100%,100%);fill-opacity:1;" d="M 82.558594 209.421875 L 89.558594 209.421875 L 89.558594 220.421875 L 82.558594 220.421875 Z M 82.558594 209.421875 "/>
<g style="fill:rgb(0%,0%,100%);fill-opacity:1;">
  <use xlink:href="#glyph0-1" x="82.558594" y="218.084961"/>
</g>
<path style=" stroke:none;fill-rule:nonzero;fill:rgb(100%,100%,100%);fill-opacity:1;" d="M 94.710938 229.492188 L 102.710938 229.492188 L 102.710938 240.492188 L 94.710938 240.492188 Z M 94.710938 229.492188 "/>
<g style="fill:rgb(100%,0%,0%);fill-opacity:1;">
  <use xlink:href="#glyph0-2" x="94.710938" y="238.155273"/>
</g>
<path style="fill:none;stroke-width:1.2;stroke-linecap:butt;stroke-linejoin:miter;stroke:rgb(0%,0%,0%);stroke-opacity:1;stroke-miterlimit:10;" d="M 94.996094 170.328125 L 83.390625 167.269531 "/>
<path style="fill:none;stroke-width:1.2;stroke-linecap:butt;stroke-linejoin:miter;stroke:rgb(100%,0%,0%);stroke-opacity:1;stroke-miterlimit:10;" d="M 83.390625 167.269531 L 71.789062 164.210938 "/>
<path style="fill:none;stroke-width:1.2;stroke-linecap:butt;stroke-linejoin:miter;stroke:rgb(0%,0%,0%);stroke-opacity:1;stroke-miterlimit:10;" d="M 93.554688 175.785156 L 81.953125 172.730469 "/>
<path style="fill:none;stroke-width:1.2;stroke-linecap:butt;stroke-linejoin:miter;stroke:rgb(100%,0%,0%);stroke-opacity:1;stroke-miterlimit:10;" d="M 81.953125 172.730469 L 70.351562 169.671875 "/>
<path style="fill:none;stroke-width:1.2;stroke-linecap:butt;stroke-linejoin:miter;stroke:rgb(0%,0%,0%);stroke-opacity:1;stroke-miterlimit:10;" d="M 94.277344 173.054688 L 102.722656 164.535156 "/>
<path style="fill:none;stroke-width:1.2;stroke-linecap:butt;stroke-linejoin:miter;stroke:rgb(0%,0%,100%);stroke-opacity:1;stroke-miterlimit:10;" d="M 102.722656 164.535156 L 111.171875 156.015625 "/>
<path style=" stroke:none;fill-rule:nonzero;fill:rgb(100%,100%,100%);fill-opacity:1;" d="M 63.070312 161.441406 L 71.070312 161.441406 L 71.070312 172.441406 L 63.070312 172.441406 Z M 63.070312 161.441406 "/>
<g style="fill:rgb(100%,0%,0%);fill-opacity:1;">
  <use xlink:href="#glyph0-2" x="63.070312" y="170.104492"/>
</g>
<path style="fill:none;stroke-width:1;stroke-linecap:butt;stroke-linejoin:miter;stroke:rgb(0%,0%,0%);stroke-opacity:1;stroke-miterlimit:10;" d="M 104.867188 132.863281 L 104.867188 132.863281 M 105.140625 135.851562 L 106.144531 135.578125 M 105.414062 138.839844 L 107.425781 138.289062 M 105.6875 141.828125 L 108.703125 141.003906 M 105.960938 144.8125 L 109.984375 143.71875 M 106.234375 147.800781 L 111.261719 146.429688 M 106.507812 150.789062 L 112.542969 149.144531 M 106.78125 153.777344 L 113.824219 151.859375 M 107.054688 156.765625 L 115.101562 154.570312 M 107.085938 157.128906 L 115.257812 154.902344 "/>
<path style=" stroke:none;fill-rule:nonzero;fill:rgb(100%,100%,100%);fill-opacity:1;" d="M 104.171875 150.515625 L 118.171875 150.515625 L 118.171875 161.515625 L 104.171875 161.515625 Z M 104.171875 150.515625 "/>
<g style="fill:rgb(0%,0%,100%);fill-opacity:1;">
  <use xlink:href="#glyph0-1" x="104.171875" y="159.178711"/>
  <use xlink:href="#glyph0-3" x="111.149414" y="159.178711"/>
</g>
<path style="fill:none;stroke-width:1.2;stroke-linecap:butt;stroke-linejoin:miter;stroke:rgb(0%,0%,0%);stroke-opacity:1;stroke-miterlimit:10;" d="M 104.867188 132.863281 L 81.660156 126.75 "/>
<path style="fill:none;stroke-width:1.2;stroke-linecap:butt;stroke-linejoin:miter;stroke:rgb(0%,0%,0%);stroke-opacity:1;stroke-miterlimit:10;" d="M 104.867188 132.863281 L 121.761719 115.824219 "/>
<path style="fill:none;stroke-width:1.2;stroke-linecap:butt;stroke-linejoin:miter;stroke:rgb(0%,0%,0%);stroke-opacity:1;stroke-miterlimit:10;" d="M 81.660156 126.75 L 75.351562 103.597656 "/>
<path style="fill:none;stroke-width:1.2;stroke-linecap:butt;stroke-linejoin:miter;stroke:rgb(0%,0%,0%);stroke-opacity:1;stroke-miterlimit:10;" d="M 75.582031 125.917969 L 70.535156 107.394531 "/>
<path style="fill:none;stroke-width:1.2;stroke-linecap:butt;stroke-linejoin:miter;stroke:rgb(0%,0%,0%);stroke-opacity:1;stroke-miterlimit:10;" d="M 64.761719 143.789062 L 81.660156 126.75 "/>
<path style="fill:none;stroke-width:1.2;stroke-linecap:butt;stroke-linejoin:miter;stroke:rgb(0%,0%,0%);stroke-opacity:1;stroke-miterlimit:10;" d="M 75.351562 103.597656 L 52.148438 97.484375 "/>
<path style="fill:none;stroke-width:1.2;stroke-linecap:butt;stroke-linejoin:miter;stroke:rgb(0%,0%,0%);stroke-opacity:1;stroke-miterlimit:10;" d="M 52.148438 97.484375 L 35.25 114.523438 "/>
<path style="fill:none;stroke-width:1.2;stroke-linecap:butt;stroke-linejoin:miter;stroke:rgb(0%,0%,0%);stroke-opacity:1;stroke-miterlimit:10;" d="M 54.46875 103.164062 L 40.949219 116.792969 "/>
<path style="fill:none;stroke-width:1.2;stroke-linecap:butt;stroke-linejoin:miter;stroke:rgb(0%,0%,0%);stroke-opacity:1;stroke-miterlimit:10;" d="M 35.25 114.523438 L 41.558594 137.675781 "/>
<path style="fill:none;stroke-width:1.2;stroke-linecap:butt;stroke-linejoin:miter;stroke:rgb(0%,0%,0%);stroke-opacity:1;stroke-miterlimit:10;" d="M 41.558594 137.675781 L 64.761719 143.789062 "/>
<path style="fill:none;stroke-width:1.2;stroke-linecap:butt;stroke-linejoin:miter;stroke:rgb(0%,0%,0%);stroke-opacity:1;stroke-miterlimit:10;" d="M 45.316406 132.828125 L 63.878906 137.71875 "/>
<path style="fill:none;stroke-width:1.2;stroke-linecap:butt;stroke-linejoin:miter;stroke:rgb(0%,0%,0%);stroke-opacity:1;stroke-miterlimit:10;" d="M 121.761719 115.824219 L 107.917969 96.226562 "/>
<path style="fill:none;stroke-width:1;stroke-linecap:butt;stroke-linejoin:miter;stroke:rgb(0%,0%,0%);stroke-opacity:1;stroke-miterlimit:10;" d="M 121.761719 115.824219 L 121.761719 115.824219 M 123.894531 117.9375 L 124.488281 117.082031 M 126.023438 120.050781 L 127.210938 118.335938 M 128.152344 122.164062 L 129.9375 119.59375 M 130.28125 124.277344 L 132.660156 120.847656 M 132.414062 126.386719 L 135.382812 122.105469 M 134.542969 128.5 L 138.109375 123.363281 M 136.671875 130.613281 L 140.832031 124.617188 M 138.800781 132.726562 L 143.558594 125.875 M 139.0625 132.984375 L 143.890625 126.027344 "/>
<path style="fill:none;stroke-width:1.2;stroke-linecap:butt;stroke-linejoin:miter;stroke:rgb(0%,0%,0%);stroke-opacity:1;stroke-miterlimit:10;" d="M 131.8125 94.035156 L 121.761719 115.824219 "/>
<path style="fill:none;stroke-width:1;stroke-linecap:butt;stroke-linejoin:miter;stroke:rgb(0%,0%,0%);stroke-opacity:1;stroke-miterlimit:10;" d="M 131.8125 94.035156 L 131.8125 94.035156 M 128.824219 93.785156 L 128.917969 94.824219 M 125.835938 93.535156 L 126.023438 95.613281 M 122.84375 93.285156 L 123.128906 96.402344 M 119.855469 93.035156 L 120.234375 97.191406 M 116.867188 92.785156 L 117.339844 97.980469 M 113.875 92.539062 L 114.445312 98.769531 M 110.886719 92.289062 L 111.550781 99.558594 M 107.898438 92.039062 L 108.660156 100.34375 M 107.53125 92.007812 L 108.304688 100.441406 "/>
<path style="fill:none;stroke-width:1.2;stroke-linecap:butt;stroke-linejoin:miter;stroke:rgb(0%,0%,0%);stroke-opacity:1;stroke-miterlimit:10;" d="M 131.8125 94.035156 L 151.414062 80.1875 "/>
<path style=" stroke:none;fill-rule:nonzero;fill:rgb(0%,0%,0%);fill-opacity:1;" d="M 151.414062 80.1875 L 153.4375 55.90625 L 145.003906 56.679688 Z M 151.414062 80.1875 "/>
<path style="fill:none;stroke-width:1.2;stroke-linecap:butt;stroke-linejoin:miter;stroke:rgb(0%,0%,0%);stroke-opacity:1;stroke-miterlimit:10;" d="M 151.414062 80.1875 L 173.203125 90.238281 "/>
<path style="fill:none;stroke-width:1.2;stroke-linecap:butt;stroke-linejoin:miter;stroke:rgb(0%,0%,0%);stroke-opacity:1;stroke-miterlimit:10;" d="M 174.832031 92.542969 L 184.632812 85.621094 "/>
<path style="fill:none;stroke-width:1.2;stroke-linecap:butt;stroke-linejoin:miter;stroke:rgb(100%,0%,0%);stroke-opacity:1;stroke-miterlimit:10;" d="M 184.632812 85.621094 L 194.433594 78.699219 "/>
<path style="fill:none;stroke-width:1.2;stroke-linecap:butt;stroke-linejoin:miter;stroke:rgb(0%,0%,0%);stroke-opacity:1;stroke-miterlimit:10;" d="M 171.574219 87.933594 L 181.375 81.007812 "/>
<path style="fill:none;stroke-width:1.2;stroke-linecap:butt;stroke-linejoin:miter;stroke:rgb(100%,0%,0%);stroke-opacity:1;stroke-miterlimit:10;" d="M 181.375 81.007812 L 191.175781 74.085938 "/>
<path style="fill:none;stroke-width:1.2;stroke-linecap:butt;stroke-linejoin:miter;stroke:rgb(0%,0%,0%);stroke-opacity:1;stroke-miterlimit:10;" d="M 173.203125 90.238281 L 174.300781 102.1875 "/>
<path style="fill:none;stroke-width:1.2;stroke-linecap:butt;stroke-linejoin:miter;stroke:rgb(0%,0%,100%);stroke-opacity:1;stroke-miterlimit:10;" d="M 174.300781 102.1875 L 175.394531 114.136719 "/>
<path style=" stroke:none;fill-rule:nonzero;fill:rgb(100%,100%,100%);fill-opacity:1;" d="M 188.804688 70.890625 L 196.804688 70.890625 L 196.804688 81.890625 L 188.804688 81.890625 Z M 188.804688 70.890625 "/>
<g style="fill:rgb(100%,0%,0%);fill-opacity:1;">
  <use xlink:href="#glyph0-2" x="188.804688" y="79.553711"/>
</g>
<path style="fill:none;stroke-width:1.2;stroke-linecap:butt;stroke-linejoin:miter;stroke:rgb(0%,0%,100%);stroke-opacity:1;stroke-miterlimit:10;" d="M 175.394531 114.136719 L 186.289062 119.160156 "/>
<path style="fill:none;stroke-width:1.2;stroke-linecap:butt;stroke-linejoin:miter;stroke:rgb(0%,0%,0%);stroke-opacity:1;stroke-miterlimit:10;" d="M 186.289062 119.160156 L 197.1875 124.1875 "/>
<path style=" stroke:none;fill-rule:nonzero;fill:rgb(100%,100%,100%);fill-opacity:1;" d="M 168.394531 108.636719 L 182.394531 108.636719 L 182.394531 119.636719 L 168.394531 119.636719 Z M 168.394531 108.636719 "/>
<g style="fill:rgb(0%,0%,100%);fill-opacity:1;">
  <use xlink:href="#glyph0-1" x="168.394531" y="117.299805"/>
  <use xlink:href="#glyph0-3" x="175.37207" y="117.299805"/>
</g>
<path style="fill:none;stroke-width:1.2;stroke-linecap:butt;stroke-linejoin:miter;stroke:rgb(0%,0%,0%);stroke-opacity:1;stroke-miterlimit:10;" d="M 197.1875 124.1875 L 199.378906 148.082031 "/>
<path style="fill:none;stroke-width:1.2;stroke-linecap:butt;stroke-linejoin:miter;stroke:rgb(0%,0%,0%);stroke-opacity:1;stroke-miterlimit:10;" d="M 203.027344 126.058594 L 204.78125 145.175781 "/>
<path style="fill:none;stroke-width:1.2;stroke-linecap:butt;stroke-linejoin:miter;stroke:rgb(0%,0%,0%);stroke-opacity:1;stroke-miterlimit:10;" d="M 216.785156 110.339844 L 197.1875 124.1875 "/>
<path style="fill:none;stroke-width:1.2;stroke-linecap:butt;stroke-linejoin:miter;stroke:rgb(0%,0%,0%);stroke-opacity:1;stroke-miterlimit:10;" d="M 199.378906 148.082031 L 221.167969 158.132812 "/>
<path style="fill:none;stroke-width:1.2;stroke-linecap:butt;stroke-linejoin:miter;stroke:rgb(0%,0%,0%);stroke-opacity:1;stroke-miterlimit:10;" d="M 221.167969 158.132812 L 223.359375 182.03125 "/>
<path style="fill:none;stroke-width:1.2;stroke-linecap:butt;stroke-linejoin:miter;stroke:rgb(0%,0%,0%);stroke-opacity:1;stroke-miterlimit:10;" d="M 227.011719 160.007812 L 228.761719 179.125 "/>
<path style="fill:none;stroke-width:1.2;stroke-linecap:butt;stroke-linejoin:miter;stroke:rgb(0%,0%,0%);stroke-opacity:1;stroke-miterlimit:10;" d="M 240.769531 144.289062 L 221.167969 158.132812 "/>
<path style="fill:none;stroke-width:1.2;stroke-linecap:butt;stroke-linejoin:miter;stroke:rgb(0%,0%,0%);stroke-opacity:1;stroke-miterlimit:10;" d="M 223.359375 182.03125 L 245.152344 192.082031 "/>
<path style="fill:none;stroke-width:1.2;stroke-linecap:butt;stroke-linejoin:miter;stroke:rgb(0%,0%,0%);stroke-opacity:1;stroke-miterlimit:10;" d="M 245.152344 192.082031 L 264.75 178.234375 "/>
<path style="fill:none;stroke-width:1.2;stroke-linecap:butt;stroke-linejoin:miter;stroke:rgb(0%,0%,0%);stroke-opacity:1;stroke-miterlimit:10;" d="M 243.851562 186.085938 L 259.53125 175.007812 "/>
<path style="fill:none;stroke-width:1.2;stroke-linecap:butt;stroke-linejoin:miter;stroke:rgb(0%,0%,0%);stroke-opacity:1;stroke-miterlimit:10;" d="M 264.75 178.234375 L 262.558594 154.339844 "/>
<path style="fill:none;stroke-width:1.2;stroke-linecap:butt;stroke-linejoin:miter;stroke:rgb(0%,0%,0%);stroke-opacity:1;stroke-miterlimit:10;" d="M 262.558594 154.339844 L 240.769531 144.289062 "/>
<path style="fill:none;stroke-width:1.2;stroke-linecap:butt;stroke-linejoin:miter;stroke:rgb(0%,0%,0%);stroke-opacity:1;stroke-miterlimit:10;" d="M 258.015625 158.460938 L 240.582031 150.417969 "/>
<path style="fill:none;stroke-width:1.2;stroke-linecap:butt;stroke-linejoin:miter;stroke:rgb(0%,0%,0%);stroke-opacity:1;stroke-miterlimit:10;" d="M 240.769531 144.289062 L 238.578125 120.390625 "/>
<path style="fill:none;stroke-width:1.2;stroke-linecap:butt;stroke-linejoin:miter;stroke:rgb(0%,0%,0%);stroke-opacity:1;stroke-miterlimit:10;" d="M 238.578125 120.390625 L 216.785156 110.339844 "/>
<path style="fill:none;stroke-width:1.2;stroke-linecap:butt;stroke-linejoin:miter;stroke:rgb(0%,0%,0%);stroke-opacity:1;stroke-miterlimit:10;" d="M 234.03125 124.511719 L 216.601562 116.472656 "/>
</g>
</svg>

<svg xmlns="http://www.w3.org/2000/svg" xmlns:xlink="http://www.w3.org/1999/xlink" width="300pt" height="300pt" viewBox="0 0 300 300"><defs><symbol overflow="visible"><path d="M.453 1.594v-7.938h4.5v7.938zm.5-.5h3.5v-6.938h-3.5zm0 0"/></symbol><symbol overflow="visible" id="a"><path d="M.89-6.563H2.08l2.906 5.485v-5.484h.86V0H4.656L1.75-5.484V0H.89zm0 0"/></symbol><symbol overflow="visible" id="b"><path d="M3.547-5.953c-.65 0-1.164.242-1.547.72-.375.48-.563 1.13-.563 1.952 0 .835.188 1.49.563 1.967.383.48.898.72 1.547.72.644 0 1.156-.24 1.53-.72.376-.476.564-1.132.564-1.968 0-.822-.187-1.474-.562-1.954-.375-.477-.887-.72-1.53-.72zm0-.734c.914 0 1.648.312 2.203.937.55.617.828 1.438.828 2.47 0 1.042-.277 1.87-.828 2.483-.555.617-1.29.922-2.203.922-.93 0-1.668-.305-2.22-.922C.774-1.41.5-2.237.5-3.28c0-1.033.273-1.853.828-2.47.55-.625 1.29-.938 2.22-.938zm0 0"/></symbol><symbol overflow="visible" id="c"><path d="M.89-6.563h.876v2.688H5v-2.688h.89V0H5v-3.125H1.766V0H.89zm0 0"/></symbol></defs><g><path fill="#fff" d="M0 0h300v300H0z"/><path d="M140.578 243.707l-18.71-15.023M121.867 228.684l1.156-23.97M116.344 226.016l.922-19.176" stroke-width="1.2" stroke="#000" stroke-miterlimit="10" fill="none"/><path d="M98.71 234.992l11.58-3.152" stroke-width="1.2" stroke="#f00" stroke-miterlimit="10" fill="none"/><path d="M110.29 231.84l11.577-3.156M123.023 204.715l-22.44-8.504M100.582 196.21l-7.512 9.356" stroke-width="1.2" stroke="#000" stroke-miterlimit="10" fill="none"/><path d="M93.07 205.566l-7.51 9.356" stroke-width="1.2" stroke="#00f" stroke-miterlimit="10" fill="none"/><path d="M103.484 201.617l-6.01 7.485" stroke-width="1.2" stroke="#000" stroke-miterlimit="10" fill="none"/><path d="M97.473 209.102l-6.008 7.484" stroke-width="1.2" stroke="#00f" stroke-miterlimit="10" fill="none"/><path d="M100.582 196.21l-6.305-23.155" stroke-width="1.2" stroke="#000" stroke-miterlimit="10" fill="none"/><path d="M85.56 214.922l6.577 10.035" stroke-width="1.2" stroke="#00f" stroke-miterlimit="10" fill="none"/><path d="M92.137 224.957l6.574 10.035" stroke-width="1.2" stroke="#f00" stroke-miterlimit="10" fill="none"/><path d="M82.56 209.422h7v11h-7zm0 0" fill="#fff"/><use xlink:href="#a" x="82.559" y="218.085" fill="#00f"/><path d="M94.71 229.492h8v11h-8zm0 0" fill="#fff"/><use xlink:href="#b" x="94.711" y="238.155" fill="#f00"/><path d="M94.996 170.328L83.39 167.27" stroke-width="1.2" stroke="#000" stroke-miterlimit="10" fill="none"/><path d="M83.39 167.27l-11.6-3.06" stroke-width="1.2" stroke="#f00" stroke-miterlimit="10" fill="none"/><path d="M93.555 175.785l-11.602-3.055" stroke-width="1.2" stroke="#000" stroke-miterlimit="10" fill="none"/><path d="M81.953 172.73l-11.6-3.058" stroke-width="1.2" stroke="#f00" stroke-miterlimit="10" fill="none"/><path d="M94.277 173.055l8.446-8.52" stroke-width="1.2" stroke="#000" stroke-miterlimit="10" fill="none"/><path d="M102.723 164.535l8.45-8.52" stroke-width="1.2" stroke="#00f" stroke-miterlimit="10" fill="none"/><path d="M63.07 161.44h8v11h-8zm0 0" fill="#fff"/><use xlink:href="#b" x="63.07" y="170.104" fill="#f00"/><path d="M104.867 132.863m.274 2.99l1.005-.275m-.73 3.262l2.01-.55m-1.737 3.538l3.015-.824m-2.742 3.81l4.024-1.095m-3.75 4.08l5.028-1.37m-4.754 4.36l6.035-1.645m-5.762 4.632l7.044-1.918m-6.77 4.906l8.048-2.196m-8.016 2.56l8.172-2.228" stroke="#000" stroke-miterlimit="10" fill="none"/><path d="M104.172 150.516h14v11h-14zm0 0" fill="#fff"/><g fill="#00f"><use xlink:href="#a" x="104.172" y="159.179"/><use xlink:href="#c" x="111.149" y="159.179"/></g><path d="M104.867 132.863L81.66 126.75M104.867 132.863l16.895-17.04M81.66 126.75l-6.308-23.152M75.582 125.918l-5.047-18.523M64.762 143.79l16.898-17.04M75.352 103.598l-23.204-6.114M52.148 97.484l-16.898 17.04M54.47 103.164l-13.52 13.63M35.25 114.523l6.31 23.153M41.56 137.676l23.202 6.113M45.316 132.828l18.563 4.89M121.762 115.824l-13.844-19.597" stroke-width="1.2" stroke="#000" stroke-miterlimit="10" fill="none"/><path d="M121.762 115.824m2.133 2.114l.593-.856m1.535 2.97l1.188-1.716m.942 3.828l1.786-2.57m.343 4.683l2.38-3.43m-.246 5.54l2.97-4.282m-.84 6.395l3.565-5.137m-1.438 7.25l4.16-5.996m-2.03 8.11l4.757-6.852m-4.498 7.11l4.83-6.958" stroke="#000" stroke-miterlimit="10" fill="none"/><path d="M131.813 94.035l-10.05 21.79" stroke-width="1.2" stroke="#000" stroke-miterlimit="10" fill="none"/><path d="M131.813 94.035m-2.99-.25l.095 1.04m-3.082-1.29l.187 2.078m-3.18-2.328l.286 3.117m-3.275-3.367l.38 4.156m-3.368-4.405l.473 5.195m-3.465-5.44l.57 6.23m-3.558-6.48l.664 7.27m-3.652-7.52l.762 8.304m-1.13-8.336l.775 8.433" stroke="#000" stroke-miterlimit="10" fill="none"/><path d="M131.813 94.035l19.6-13.847" stroke-width="1.2" stroke="#000" stroke-miterlimit="10" fill="none"/><path d="M151.414 80.188l2.024-24.282-8.434.774zm0 0"/><path d="M151.414 80.188l21.79 10.05M174.832 92.543l9.8-6.922" stroke-width="1.2" stroke="#000" stroke-miterlimit="10" fill="none"/><path d="M184.633 85.62l9.8-6.92" stroke-width="1.2" stroke="#f00" stroke-miterlimit="10" fill="none"/><path d="M171.574 87.934l9.8-6.926" stroke-width="1.2" stroke="#000" stroke-miterlimit="10" fill="none"/><path d="M181.375 81.008l9.8-6.922" stroke-width="1.2" stroke="#f00" stroke-miterlimit="10" fill="none"/><path d="M173.203 90.238l1.098 11.95" stroke-width="1.2" stroke="#000" stroke-miterlimit="10" fill="none"/><path d="M174.3 102.188l1.095 11.95" stroke-width="1.2" stroke="#00f" stroke-miterlimit="10" fill="none"/><path d="M188.805 70.89h8v11h-8zm0 0" fill="#fff"/><use xlink:href="#b" x="188.805" y="79.554" fill="#f00"/><path d="M175.395 114.137l10.894 5.023" stroke-width="1.2" stroke="#00f" stroke-miterlimit="10" fill="none"/><path d="M186.29 119.16l10.898 5.028" stroke-width="1.2" stroke="#000" stroke-miterlimit="10" fill="none"/><path d="M168.395 108.637h14v11h-14zm0 0" fill="#fff"/><g fill="#00f"><use xlink:href="#a" x="168.395" y="117.3"/><use xlink:href="#c" x="175.372" y="117.3"/></g><path d="M197.188 124.188l2.19 23.894M203.027 126.06l1.754 19.116M216.785 110.34l-19.597 13.847M199.38 148.082l21.788 10.05M221.168 158.133l2.19 23.898M227.012 160.008l1.75 19.117M240.77 144.29l-19.602 13.843M223.36 182.03l21.792 10.052M245.152 192.082l19.598-13.848M243.852 186.086l15.68-11.078M264.75 178.234l-2.19-23.894M262.56 154.34l-21.79-10.05M258.016 158.46l-17.434-8.042M240.77 144.29l-2.192-23.9M238.578 120.39l-21.793-10.05M234.03 124.512l-17.428-8.04" stroke-width="1.2" stroke="#000" stroke-miterlimit="10" fill="none"/></g></svg>
